; generated by Slic3r 1.2.9 on 2019-09-29 at 14:00:00

; external perimeters extrusion width = 0.50mm
; perimeters extrusion width = 0.84mm
; infill extrusion width = 0.84mm
; solid infill extrusion width = 0.84mm
; top infill extrusion width = 0.84mm

M107
M104 S200 ; set temperature
G28 ; home all axes
G1 Z5 F5000 ; lift nozzle

M109 S200 ; wait for temperature to be reached
G21 ; set units to millimeters
G90 ; use absolute coordinates
M82 ; use absolute distances for extrusion
G92 E0
G1 Z0.350 F7800.000
G1 E-2.00000 F2400.00000
G92 E0
G1 X86.140 Y85.111 F7800.000
G1 E2.00000 F2400.00000
G1 X88.489 Y83.614 E2.08619 F1800.000
G1 X92.500 Y82.751 E2.21313
G1 X107.500 Y82.751 E2.67725
G1 X110.257 Y83.149 E2.76344
G1 X112.789 Y84.310 E2.84963 F1800.000
G1 X114.889 Y86.140 E2.93582
G1 X116.386 Y88.489 E3.02201
G1 X117.249 Y92.500 E3.14896
G1 X117.249 Y107.500 E3.61308
G1 X116.851 Y110.257 E3.69927
G1 X115.690 Y112.789 E3.78546
G1 X113.860 Y114.889 E3.87164
G1 X111.511 Y116.386 E3.95783
G1 X107.500 Y117.249 E4.08478
G1 X92.500 Y117.249 E4.54890
G1 X89.743 Y116.851 E4.63509
G1 X87.211 Y115.690 E4.72128
G1 X85.111 Y113.860 E4.80747
G1 X83.614 Y111.511 E4.89366
G1 X82.751 Y107.500 E5.02060
G1 X82.751 Y92.500 E5.48472
G1 X83.149 Y89.743 E5.57091
G1 X84.310 Y87.211 E5.65710
G1 X86.091 Y85.167 E5.74097
G1 X86.624 Y85.553 F7800.000
G1 X86.751 Y85.415 E5.74679 F1800.000
G1 X89.071 Y84.045 E5.83016
G1 X92.500 Y83.376 E5.93826
G1 X107.500 Y83.376 E6.40238
G1 X110.165 Y83.773 E6.48575
G1 X112.597 Y84.932 E6.56912 F1800.000
G1 X114.585 Y86.751 E6.65248
G1 X115.955 Y89.071 E6.73585
G1 X116.624 Y92.500 E6.84396
G1 X116.624 Y107.500 E7.30808
G1 X116.227 Y110.165 E7.39145
G1 X115.068 Y112.597 E7.47481
G1 X113.249 Y114.585 E7.55818
G1 X110.929 Y115.955 E7.64155
G1 X107.500 Y116.624 E7.74965
G1 X92.500 Y116.624 E8.21377
G1 X89.835 Y116.227 E8.29714
G1 X87.403 Y115.068 E8.38051
G1 X85.415 Y113.249 E8.46388
G1 X84.045 Y110.929 E8.54724
G1 X83.376 Y107.500 E8.65535
G1 X83.376 Y92.500 E9.11947
G1 X83.773 Y89.835 E9.20284
G1 X84.932 Y87.403 E9.28620
G1 X86.573 Y85.609 E9.36143
G1 X87.093 Y86.007 F7800.000
G1 X87.360 Y85.731 E9.37329 F1800.000
G1 X89.646 Y84.494 E9.45373
G1 X92.500 Y84.000 E9.54334
G1 X107.500 Y84.000 E10.00746
G1 X110.069 Y84.398 E10.08791
G1 X112.398 Y85.554 E10.16835 F1800.000
G1 X114.269 Y87.360 E10.24880
G1 X115.506 Y89.646 E10.32924
G1 X116.000 Y92.500 E10.41886
G1 X116.000 Y107.500 E10.88297
G1 X115.602 Y110.069 E10.96342
G1 X114.446 Y112.398 E11.04387
G1 X112.640 Y114.269 E11.12431
G1 X110.354 Y115.506 E11.20476
G1 X107.500 Y116.000 E11.29437
G1 X92.500 Y116.000 E11.75849
G1 X89.931 Y115.602 E11.83893
G1 X87.602 Y114.446 E11.91938
G1 X85.731 Y112.640 E11.99982
G1 X84.494 Y110.354 E12.08027
G1 X84.000 Y107.500 E12.16988
G1 X84.000 Y92.500 E12.63400
G1 X84.398 Y89.931 E12.71444
G1 X85.554 Y87.602 E12.79489
G1 X87.041 Y86.061 E12.86116
G1 X87.546 Y86.471 F7800.000
G1 X87.966 Y86.062 E12.87929 F1800.000
G1 X90.214 Y84.964 E12.95671
G1 X92.500 Y84.625 E13.02820
G1 X107.500 Y84.625 E13.49232
G1 X109.970 Y85.023 E13.56974
G1 X112.191 Y86.175 E13.64715 F1800.000
G1 X113.938 Y87.966 E13.72456
G1 X115.036 Y90.214 E13.80198
G1 X115.375 Y92.500 E13.87348
G1 X115.375 Y107.500 E14.33760
G1 X114.977 Y109.970 E14.41501
G1 X113.825 Y112.191 E14.49242
G1 X112.034 Y113.938 E14.56984
G1 X109.786 Y115.036 E14.64725
G1 X107.500 Y115.375 E14.71875
G1 X92.500 Y115.375 E15.18287
G1 X90.030 Y114.977 E15.26028
G1 X87.809 Y113.825 E15.33769
G1 X86.062 Y112.034 E15.41511
G1 X84.964 Y109.786 E15.49252
G1 X84.625 Y107.500 E15.56402
G1 X84.625 Y92.500 E16.02814
G1 X85.023 Y90.030 E16.10555
G1 X86.175 Y87.809 E16.18297
G1 X87.493 Y86.523 E16.23993
G1 X87.980 Y86.946 F7800.000
G1 X88.569 Y86.409 E16.26461 F1800.000
G1 X90.773 Y85.459 E16.33887
G1 X92.500 Y85.250 E16.39269
G1 X107.500 Y85.250 E16.85681
G1 X109.867 Y85.647 E16.93107
G1 X111.974 Y86.796 E17.00532 F1800.000
G1 X113.591 Y88.569 E17.07958
G1 X114.541 Y90.773 E17.15384
G1 X114.750 Y92.500 E17.20766
G1 X114.750 Y107.500 E17.67178
G1 X114.353 Y109.867 E17.74604
G1 X113.204 Y111.974 E17.82030
G1 X111.431 Y113.591 E17.89456
G1 X109.227 Y114.541 E17.96881
G1 X107.500 Y114.750 E18.02264
G1 X92.500 Y114.750 E18.48676
G1 X90.133 Y114.353 E18.56101
G1 X88.026 Y113.204 E18.63527
G1 X86.409 Y111.431 E18.70953
G1 X85.459 Y109.227 E18.78379
G1 X85.250 Y107.500 E18.83761
G1 X85.250 Y92.500 E19.30173
G1 X85.647 Y90.133 E19.37599
G1 X86.796 Y88.026 E19.45025
G1 X87.924 Y86.997 E19.49750
G1 X88.389 Y87.431 F7800.000
G1 X89.168 Y86.774 E19.52904 F1800.000
G1 X91.320 Y85.981 E19.60001
G1 X92.500 Y85.875 E19.63666
G1 X107.500 Y85.875 E20.10078
G1 X109.759 Y86.272 E20.17174
G1 X111.747 Y87.415 E20.24270 F1800.000
G1 X113.226 Y89.168 E20.31366
G1 X114.019 Y91.320 E20.38463
G1 X114.125 Y92.500 E20.42128
G1 X114.125 Y107.500 E20.88540
G1 X113.728 Y109.759 E20.95636
G1 X112.585 Y111.747 E21.02732
G1 X110.832 Y113.226 E21.09828
G1 X108.680 Y114.019 E21.16925
G1 X107.500 Y114.125 E21.20590
G1 X92.500 Y114.125 E21.67002
G1 X90.241 Y113.728 E21.74098
G1 X88.253 Y112.585 E21.81194
G1 X86.774 Y110.832 E21.88290
G1 X85.981 Y108.680 E21.95387
G1 X85.875 Y107.500 E21.99052
G1 X85.875 Y92.500 E22.45464
G1 X86.272 Y90.241 E22.52560
G1 X87.415 Y88.253 E22.59656
G1 X88.332 Y87.480 E22.63366
G1 E20.63366 F2400.00000
G92 E0
G1 X106.525 Y106.525 F7800.000
G1 E2.00000 F2400.00000
G1 X93.475 Y106.525 E2.40379 F1800.000
G1 X93.475 Y93.475 E2.80758
G1 X106.525 Y93.475 E3.21137
G1 X106.525 Y106.450 E3.61284
G1 X107.150 Y107.150 F7800.000
G1 X92.850 Y107.150 E4.05530 F1800.000
G1 X92.850 Y92.850 E4.49777
G1 X107.150 Y92.850 E4.94023
G1 X107.150 Y107.075 E5.38037
G1 X106.717 Y106.900 F7800.000
G1 X106.147 Y94.159 F7800.000
G1 X105.841 Y93.853 E5.39378 F1800.000
G1 X104.953 Y93.853 E5.42139
G1 X106.147 Y95.047 E5.47385
G1 X106.147 Y95.935 E5.50146
G1 X104.065 Y93.853 E5.59296
G1 X103.177 Y93.853 E5.62057
G1 X106.147 Y96.823 E5.75112
G1 X106.147 Y97.711 E5.77873
G1 X102.289 Y93.853 E5.94832
G1 X101.401 Y93.853 E5.97593
G1 X106.147 Y98.599 E6.18457
G1 X106.147 Y99.487 E6.21218
G1 X100.513 Y93.853 E6.45986
G1 X99.625 Y93.853 E6.48747
G1 X106.147 Y100.375 E6.77419
G1 X106.147 Y101.263 E6.80180
G1 X98.737 Y93.853 E7.12757
G1 X97.849 Y93.853 E7.15518
G1 X106.147 Y102.151 E7.52000
G1 X106.147 Y103.039 E7.54761
G1 X96.961 Y93.853 E7.95147
G1 X96.073 Y93.853 E7.97907
G1 X106.147 Y103.927 E8.42198
G1 X106.147 Y104.815 E8.44959
G1 X95.185 Y93.853 E8.93153
G1 X94.297 Y93.853 E8.95914
G1 X106.147 Y105.703 E9.48014
G1 X105.703 Y106.147 E9.49966
G1 X93.853 Y94.297 E10.02065
G1 X93.853 Y95.185 E10.04826
G1 X104.815 Y106.147 E10.53021
G1 X103.927 Y106.147 E10.55782
G1 X93.853 Y96.073 E11.00072
G1 X93.853 Y96.961 E11.02833
G1 X103.039 Y106.147 E11.43219
G1 X102.151 Y106.147 E11.45979
G1 X93.853 Y97.849 E11.82461
G1 X93.853 Y98.737 E11.85222
G1 X101.263 Y106.147 E12.17799
G1 X100.375 Y106.147 E12.20560
G1 X93.853 Y99.625 E12.49232
G1 X93.853 Y100.513 E12.51993
G1 X99.487 Y106.147 E12.76761
G1 X98.599 Y106.147 E12.79522
G1 X93.853 Y101.401 E13.00386
G1 X93.853 Y102.289 E13.03147
G1 X97.711 Y106.147 E13.20106
G1 X96.823 Y106.147 E13.22867
G1 X93.853 Y103.177 E13.35922
G1 X93.853 Y104.065 E13.38682
G1 X95.935 Y106.147 E13.47833
G1 X95.047 Y106.147 E13.50594
G1 X93.853 Y104.953 E13.55840
G1 X93.853 Y105.841 E13.58600
G1 X94.159 Y106.147 E13.59942
G1 Z0.600 F7800.000
G1 X106.634 Y106.634 F7800.000
G1 X93.366 Y106.634 E13.96798 F3600.000
G1 X93.366 Y93.366 E14.33654
G1 X106.634 Y93.366 E14.70511
G1 X106.634 Y106.559 E15.07159
G1 X107.250 Y107.250 F7800.000
G1 X92.750 Y107.250 E15.30049 F1800.000
G1 X92.750 Y92.750 E15.52939
G1 X107.250 Y92.750 E15.75829
G1 X107.250 Y107.175 E15.98601
G1 X106.817 Y107.000 F7800.000
G1 X105.780 Y106.153 F7800.000
G1 X106.153 Y105.780 E16.00101 F1200.000
G1 X106.153 Y104.643 E16.03332
G1 X104.643 Y106.153 E16.09400
G1 X103.507 Y106.153 E16.12630
G1 X106.153 Y103.507 E16.23266
G1 X106.153 Y102.370 E16.26496
G1 X102.370 Y106.153 E16.41701
G1 X101.234 Y106.153 E16.44931
G1 X106.153 Y101.234 E16.64704
G1 X106.153 Y100.098 E16.67934
G1 X100.098 Y106.153 E16.92275
G1 X98.961 Y106.153 E16.95505
G1 X106.153 Y98.961 E17.24414
G1 X106.153 Y97.825 E17.27644
G1 X97.825 Y106.153 E17.61121
G1 X96.688 Y106.153 E17.64351
G1 X106.153 Y96.688 E18.02396
G1 X106.153 Y95.552 E18.05626
G1 X95.552 Y106.153 E18.48239
G1 X94.415 Y106.153 E18.51469
G1 X106.153 Y94.415 E18.98651
G1 X105.585 Y93.847 E19.00935
G1 X93.847 Y105.585 E19.48116
G1 X93.847 Y104.448 E19.51346
G1 X104.448 Y93.847 E19.93959
G1 X103.312 Y93.847 E19.97189
G1 X93.847 Y103.312 E20.35234
G1 X93.847 Y102.175 E20.38465
G1 X102.175 Y93.847 E20.71941
G1 X101.039 Y93.847 E20.75172
G1 X93.847 Y101.039 E21.04080
G1 X93.847 Y99.902 E21.07311
G1 X99.902 Y93.847 E21.31651
G1 X98.766 Y93.847 E21.34881
G1 X93.847 Y98.766 E21.54654
G1 X93.847 Y97.630 E21.57884
G1 X97.630 Y93.847 E21.73089
G1 X96.493 Y93.847 E21.76319
G1 X93.847 Y96.493 E21.86955
G1 X93.847 Y95.357 E21.90185
G1 X95.357 Y93.847 E21.96253
G1 X94.220 Y93.847 E21.99484
G1 X93.847 Y94.220 E22.00984
G1 Z0.850 F7800.000
G1 X106.634 Y106.634 F7800.000
G1 X93.366 Y106.634 E22.37840 F2143.732
G1 X93.366 Y93.366 E22.74696
G1 X106.634 Y93.366 E23.11552
G1 X106.634 Y106.559 E23.48200
G1 X107.250 Y107.250 F7800.000
G1 X92.750 Y107.250 E23.71091 F1071.866
G1 X92.750 Y92.750 E23.93981
G1 X107.250 Y92.750 E24.16871
G1 X107.250 Y107.175 E24.39643
G1 X106.817 Y107.000 F7800.000
G1 X98.992 Y105.967 F7800.000
G1 X98.992 Y101.716 E24.51449 F2858.310
G1 X101.716 Y98.992 E24.62153
G1 X101.716 Y94.033 E24.75926
M106 S255
G1 Z1.100 F7800.000
G1 X106.634 Y106.634 F7800.000
G1 X93.366 Y106.634 E25.12782 F2142.414
G1 X93.366 Y93.366 E25.49638
G1 X106.634 Y93.366 E25.86495
G1 X106.634 Y106.559 E26.23142
G1 X107.250 Y107.250 F7800.000
G1 X92.750 Y107.250 E26.46033 F1071.207
G1 X92.750 Y92.750 E26.68923
G1 X107.250 Y92.750 E26.91813
G1 X107.250 Y107.175 E27.14585
G1 X106.817 Y107.000 F7800.000
G1 X105.967 Y99.168 F7800.000
G1 X101.540 Y99.168 E27.26882 F2856.552
G1 X99.168 Y101.540 E27.36198
G1 X94.033 Y101.540 E27.50461
G1 Z1.350 F7800.000
G1 X106.634 Y106.634 F7800.000
G1 X93.366 Y106.634 E27.87317 F2141.096
G1 X93.366 Y93.366 E28.24174
G1 X106.634 Y93.366 E28.61030
G1 X106.634 Y106.559 E28.97678
G1 X107.250 Y107.250 F7800.000
G1 X92.750 Y107.250 E29.20568 F1070.548
G1 X92.750 Y92.750 E29.43458
G1 X107.250 Y92.750 E29.66349
G1 X107.250 Y107.175 E29.89120
G1 X106.817 Y107.000 F7800.000
G1 X99.345 Y105.967 F7800.000
G1 X99.345 Y101.363 E30.01908 F2854.795
G1 X101.363 Y99.345 E30.09835
G1 X101.363 Y94.033 E30.24590
G1 Z1.600 F7800.000
G1 X106.634 Y106.634 F7800.000
G1 X93.366 Y106.634 E30.61446 F2139.778
G1 X93.366 Y93.366 E30.98302
G1 X106.634 Y93.366 E31.35158
G1 X106.634 Y106.559 E31.71806
G1 X107.250 Y107.250 F7800.000
G1 X92.750 Y107.250 E31.94696 F1069.889
G1 X92.750 Y92.750 E32.17587
G1 X107.250 Y92.750 E32.40477
G1 X107.250 Y107.175 E32.63249
G1 X106.817 Y107.000 F7800.000
G1 X105.967 Y99.522 F7800.000
G1 X101.186 Y99.522 E32.76528 F2853.038
G1 X99.522 Y101.186 E32.83066
G1 X94.033 Y101.186 E32.98311
G1 Z1.850 F7800.000
G1 X106.634 Y106.634 F7800.000
G1 X93.366 Y106.634 E33.35167 F2138.460
G1 X93.366 Y93.366 E33.72024
G1 X106.634 Y93.366 E34.08880
G1 X106.634 Y106.559 E34.45528
G1 X107.250 Y107.250 F7800.000
G1 X92.750 Y107.250 E34.68418 F1069.230
G1 X92.750 Y92.750 E34.91308
G1 X107.250 Y92.750 E35.14199
G1 X107.250 Y107.175 E35.36971
G1 X106.817 Y107.000 F7800.000
G1 X99.699 Y105.967 F7800.000
G1 X99.699 Y101.009 E35.50741 F2851.280
G1 X101.009 Y99.699 E35.55890
G1 X101.009 Y94.033 E35.71626
G1 Z2.100 F7800.000
G1 X106.634 Y106.634 F7800.000
G1 X93.366 Y106.634 E36.08482 F2137.142
G1 X93.366 Y93.366 E36.45339
G1 X106.634 Y93.366 E36.82195
G1 X106.634 Y106.559 E37.18843
G1 X107.250 Y107.250 F7800.000
G1 X92.750 Y107.250 E37.41733 F1068.571
G1 X92.750 Y92.750 E37.64623
G1 X107.250 Y92.750 E37.87514
G1 X107.250 Y107.175 E38.10285
G1 X106.817 Y107.000 F7800.000
G1 X105.967 Y99.875 F7800.000
G1 X100.833 Y99.875 E38.24547 F2849.523
G1 X99.875 Y100.833 E38.28307
G1 X94.033 Y100.833 E38.44534
G1 Z2.350 F7800.000
G1 X106.634 Y106.634 F7800.000
G1 X93.366 Y106.634 E38.81391 F2135.824
G1 X93.366 Y93.366 E39.18247
G1 X106.634 Y93.366 E39.55103
G1 X106.634 Y106.559 E39.91751
G1 X107.250 Y107.250 F7800.000
G1 X92.750 Y107.250 E40.14641 F1067.912
G1 X92.750 Y92.750 E40.37531
G1 X107.250 Y92.750 E40.60422
G1 X107.250 Y107.175 E40.83194
G1 X106.817 Y107.000 F7800.000
G1 X100.052 Y105.967 F7800.000
G1 X100.052 Y100.656 E40.97946 F2847.766
G1 X100.656 Y100.052 E41.00317
G1 X100.656 Y94.033 E41.17036
G1 Z2.600 F7800.000
G1 X106.634 Y106.634 F7800.000
G1 X93.366 Y106.634 E41.53892 F2134.506
G1 X93.366 Y93.366 E41.90748
G1 X106.634 Y93.366 E42.27604
G1 X106.634 Y106.559 E42.64252
G1 X107.250 Y107.250 F7800.000
G1 X92.750 Y107.250 E42.87143 F1067.253
G1 X92.750 Y92.750 E43.10033
G1 X107.250 Y92.750 E43.32923
G1 X107.250 Y107.175 E43.55695
G1 X106.817 Y107.000 F7800.000
G1 X105.967 Y100.229 F7800.000
G1 X100.479 Y100.229 E43.70938 F2846.008
G1 X100.229 Y100.479 E43.71920
G1 X94.033 Y100.479 E43.89130
G1 Z2.850 F7800.000
G1 X106.634 Y106.634 F7800.000
G1 X93.366 Y106.634 E44.25986 F2133.960
G1 X93.366 Y93.366 E44.62843
G1 X106.634 Y93.366 E44.99699
G1 X106.634 Y106.559 E45.36347
G1 X107.250 Y107.250 F7800.000
G1 X92.750 Y107.250 E45.59237 F1066.980
G1 X92.750 Y92.750 E45.82127
G1 X107.250 Y92.750 E46.05018
G1 X107.250 Y107.175 E46.27789
G1 X106.817 Y107.000 F7800.000
G1 X100.406 Y105.967 F7800.000
G1 X100.406 Y100.406 E46.43236 F2845.280
G1 X100.302 Y100.302 E46.43643
G1 X100.302 Y94.033 E46.61056
G1 Z3.100 F7800.000
G1 X106.634 Y106.634 F7800.000
G1 X93.366 Y106.634 E46.97912 F2135.278
G1 X93.366 Y93.366 E47.34769
G1 X106.634 Y93.366 E47.71625
G1 X106.634 Y106.559 E48.08273
G1 X107.250 Y107.250 F7800.000
G1 X92.750 Y107.250 E48.31163 F1067.639
G1 X92.750 Y92.750 E48.54053
G1 X107.250 Y92.750 E48.76943
G1 X107.250 Y107.175 E48.99715
G1 X106.817 Y107.000 F7800.000
G1 X105.967 Y100.583 F7800.000
G1 X100.583 Y100.583 E49.14671 F2847.037
G1 X100.125 Y100.125 E49.16467
G1 X94.033 Y100.125 E49.33389
G1 Z3.350 F7800.000
G1 X106.634 Y106.634 F7800.000
G1 X93.366 Y106.634 E49.70245 F2136.596
G1 X93.366 Y93.366 E50.07101
G1 X106.634 Y93.366 E50.43958
G1 X106.634 Y106.559 E50.80605
G1 X107.250 Y107.250 F7800.000
G1 X92.750 Y107.250 E51.03496 F1068.298
G1 X92.750 Y92.750 E51.26386
G1 X107.250 Y92.750 E51.49276
G1 X107.250 Y107.175 E51.72048
G1 X106.817 Y107.000 F7800.000
G1 X100.759 Y105.967 F7800.000
G1 X100.759 Y100.759 E51.86513 F2848.795
G1 X99.949 Y99.949 E51.89697
G1 X99.949 Y94.033 E52.06128
G1 Z3.600 F7800.000
G1 X106.634 Y106.634 F7800.000
G1 X93.366 Y106.634 E52.42985 F2137.914
G1 X93.366 Y93.366 E52.79841
G1 X106.634 Y93.366 E53.16697
G1 X106.634 Y106.559 E53.53345
G1 X107.250 Y107.250 F7800.000
G1 X92.750 Y107.250 E53.76235 F1068.957
G1 X92.750 Y92.750 E53.99125
G1 X107.250 Y92.750 E54.22016
G1 X107.250 Y107.175 E54.44788
G1 X106.817 Y107.000 F7800.000
G1 X105.967 Y100.936 F7800.000
G1 X100.936 Y100.936 E54.58761 F2850.552
G1 X99.772 Y99.772 E54.63334
G1 X94.033 Y99.772 E54.79275
G1 Z3.850 F7800.000
G1 X106.634 Y106.634 F7800.000
G1 X93.366 Y106.634 E55.16131 F2139.232
G1 X93.366 Y93.366 E55.52987
G1 X106.634 Y93.366 E55.89843
G1 X106.634 Y106.559 E56.26491
G1 X107.250 Y107.250 F7800.000
G1 X92.750 Y107.250 E56.49382 F1069.616
G1 X92.750 Y92.750 E56.72272
G1 X107.250 Y92.750 E56.95162
G1 X107.250 Y107.175 E57.17934
G1 X106.817 Y107.000 F7800.000
G1 X101.113 Y105.967 F7800.000
G1 X101.113 Y101.113 E57.31416 F2852.309
G1 X99.595 Y99.595 E57.37379
G1 X99.595 Y94.033 E57.52828
G1 Z4.100 F7800.000
G1 X106.634 Y106.634 F7800.000
G1 X93.366 Y106.634 E57.89684 F2140.550
G1 X93.366 Y93.366 E58.26540
G1 X106.634 Y93.366 E58.63396
G1 X106.634 Y106.559 E59.00044
G1 X107.250 Y107.250 F7800.000
G1 X92.750 Y107.250 E59.22935 F1070.275
G1 X92.750 Y92.750 E59.45825
G1 X107.250 Y92.750 E59.68715
G1 X107.250 Y107.175 E59.91487
G1 X106.817 Y107.000 F7800.000
