; generated by Slic3r 1.2.9 on 2020-07-15 at 11:11:00

; external perimeters extrusion width = 0.50mm
; perimeters extrusion width = 0.64mm
; infill extrusion width = 0.64mm
; solid infill extrusion width = 0.64mm
; top infill extrusion width = 0.64mm

M107
G90                         ; Explicitly force absolute positioning in case it was not reset previously.
G28                         ; Home all axes.
G29                         ; Auto-level the bed.
G0 Z1.0
G0 X0 Y0  F9000 
G0 Z0.15     ; Move to the front-left part of the bed.
M109 S200   ; Set and wait for extruder temperature.
G92 E0                      ; Zero the extruder.
G1 X40 E25 F500             ; Extrude a fat line of filament to prime and clean the nozzle.
G92 E0                      ; Zero the extruder.
G1 E-1 F500                 ; Retract 1 mm.
G1 X80 F9000                ; Sweep right to cut any strings.
G1 Z0.3                     ; Raise the tip a little and begin printing.
G21 ; set units to millimeters
G90 ; use absolute coordinates
M82 ; use absolute distances for extrusion
G92 E0
G1 Z0.250 F7800.000
G1 E-2.00000 F2400.00000
G92 E0
G1 X66.576 Y66.576 F7800.000
G1 E2.00000 F2400.00000
G1 X67.537 Y65.713 E2.04986 F1200.000
G1 X68.483 Y65.027 E2.09495
G1 X69.493 Y64.436 E2.14011
G1 X70.555 Y63.946 E2.18524
G1 X71.660 Y63.564 E2.23037
G1 X72.797 Y63.292 E2.27551
G1 X73.954 Y63.132 E2.32060
G1 X75.124 Y63.087 E2.36577
G1 X76.290 Y63.156 E2.41088 F1200.000
G1 X77.204 Y63.292 E2.44651
G1 X78.341 Y63.564 E2.49164
G1 X79.445 Y63.946 E2.53676
G1 X80.724 Y64.552 E2.59138
G1 X81.721 Y65.163 E2.63650
G1 X82.653 Y65.869 E2.68164
G1 X83.511 Y66.663 E2.72676
G1 X84.131 Y67.347 E2.76240
G1 X84.837 Y68.279 E2.80751
G1 X85.448 Y69.276 E2.85264
G1 X85.959 Y70.327 E2.89777
G1 X86.364 Y71.424 E2.94289
G1 X86.708 Y72.797 E2.99751
G1 X86.868 Y73.955 E3.04263
G1 X86.913 Y75.123 E3.08776
G1 X86.844 Y76.290 E3.13288
G1 X86.708 Y77.204 E3.16853
G1 X86.436 Y78.340 E3.21363
G1 X86.054 Y79.445 E3.25876
G1 X85.448 Y80.724 E3.31339
G1 X84.837 Y81.721 E3.35853
G1 X84.131 Y82.653 E3.40365
G1 X83.511 Y83.337 E3.43928
G1 X82.653 Y84.131 E3.48441
G1 X81.721 Y84.837 E3.52954
G1 X80.724 Y85.448 E3.57466
G1 X79.445 Y86.054 E3.62928
G1 X78.340 Y86.436 E3.67441
G1 X77.204 Y86.708 E3.71952
G1 X76.290 Y86.844 E3.75517
G1 X75.123 Y86.913 E3.80030
G1 X73.710 Y86.844 E3.85492
G1 X72.556 Y86.660 E3.90001
G1 X71.424 Y86.365 E3.94514
G1 X70.555 Y86.053 E3.98079
G1 X69.493 Y85.565 E4.02592
G1 X68.484 Y84.974 E4.07105
G1 X67.537 Y84.287 E4.11618
G1 X66.489 Y83.337 E4.17079
G1 X65.713 Y82.462 E4.21592
G1 X65.026 Y81.516 E4.26104
G1 X64.435 Y80.507 E4.30617
G1 X63.947 Y79.445 E4.35129
G1 X63.635 Y78.576 E4.38694
G1 X63.340 Y77.445 E4.43205
G1 X63.132 Y76.045 E4.48667
G1 X63.087 Y74.877 E4.53180
G1 X63.156 Y73.710 E4.57692
G1 X63.340 Y72.555 E4.62205
G1 X63.564 Y71.659 E4.65772
G1 X63.946 Y70.555 E4.70281
G1 X64.435 Y69.493 E4.74794
G1 X65.163 Y68.279 E4.80256
G1 X65.869 Y67.347 E4.84768
G1 X66.523 Y66.629 E4.88518
G1 X66.839 Y66.838 F7800.000
G1 X67.590 Y66.150 E4.92450 F1200.000
G1 X68.493 Y65.467 E4.96821
G1 X69.459 Y64.875 E5.01193
G1 X70.478 Y64.380 E5.05566
G1 X71.541 Y63.988 E5.09938
G1 X72.637 Y63.702 E5.14310
G1 X73.755 Y63.525 E5.18681
G1 X74.886 Y63.458 E5.23054
G1 X76.018 Y63.503 E5.27426 F1200.000
G1 X77.140 Y63.658 E5.31798
G1 X78.460 Y63.988 E5.37049
G1 X79.522 Y64.380 E5.41419
G1 X80.340 Y64.767 E5.44913
G1 X81.318 Y65.340 E5.49285
G1 X82.234 Y66.006 E5.53657
G1 X83.242 Y66.919 E5.58908
G1 X83.994 Y67.766 E5.63279
G1 X84.660 Y68.682 E5.67651
G1 X85.233 Y69.660 E5.72023
G1 X85.707 Y70.688 E5.76395
G1 X86.078 Y71.759 E5.80767
G1 X86.298 Y72.637 E5.84261
G1 X86.475 Y73.755 E5.88632
G1 X86.542 Y74.886 E5.93003
G1 X86.475 Y76.245 E5.98254
G1 X86.298 Y77.364 E6.02627
G1 X86.012 Y78.459 E6.06998
G1 X85.620 Y79.522 E6.11370
G1 X85.233 Y80.340 E6.14864
G1 X84.533 Y81.507 E6.20115
G1 X83.850 Y82.410 E6.24486
G1 X83.081 Y83.242 E6.28859
G1 X82.410 Y83.850 E6.32352
G1 X81.507 Y84.533 E6.36724
G1 X80.541 Y85.125 E6.41096
G1 X79.522 Y85.620 E6.45468
G1 X78.241 Y86.078 E6.50719
G1 X77.140 Y86.342 E6.55089
G1 X76.018 Y86.497 E6.59462
G1 X75.114 Y86.542 E6.62956
G1 X73.982 Y86.497 E6.67328
G1 X72.860 Y86.342 E6.71698
G1 X71.759 Y86.078 E6.76071
G1 X70.688 Y85.707 E6.80443
G1 X70.368 Y85.568 E6.81790
G1 X69.459 Y85.125 E6.85695
G1 X68.493 Y84.533 E6.90066
G1 X67.766 Y83.994 E6.93560
G1 X66.919 Y83.242 E6.97931
G1 X66.150 Y82.410 E7.02304
G1 X65.467 Y81.507 E7.06676
G1 X64.875 Y80.541 E7.11048
G1 X64.380 Y79.522 E7.15419
G1 X63.922 Y78.241 E7.20670
G1 X63.658 Y77.140 E7.25042
G1 X63.503 Y76.018 E7.29414
G1 X63.458 Y75.114 E7.32907
G1 X63.503 Y73.982 E7.37279
G1 X63.702 Y72.637 E7.42529
G1 X63.988 Y71.540 E7.46902
G1 X64.380 Y70.478 E7.51273
G1 X64.875 Y69.459 E7.55645
G1 X65.467 Y68.493 E7.60018
G1 X66.150 Y67.590 E7.64389
G1 X66.786 Y66.892 E7.68034
G1 X67.101 Y67.101 F7800.000
G1 X67.995 Y66.299 E7.72668 F1200.000
G1 X68.881 Y65.654 E7.76897
G1 X69.827 Y65.099 E7.81130
G1 X70.822 Y64.640 E7.85362
G1 X71.858 Y64.280 E7.89594
G1 X72.924 Y64.024 E7.93826
G1 X74.009 Y63.873 E7.98054
G1 X75.105 Y63.829 E8.02289
G1 X75.991 Y63.873 E8.05710 F1200.000
G1 X77.076 Y64.024 E8.09942
G1 X78.142 Y64.280 E8.14173
G1 X79.178 Y64.640 E8.18404
G1 X80.358 Y65.198 E8.23444
G1 X81.293 Y65.770 E8.27674
G1 X82.168 Y66.432 E8.31907
G1 X82.973 Y67.175 E8.36137
G1 X83.568 Y67.833 E8.39561
G1 X84.230 Y68.707 E8.43791
G1 X84.802 Y69.642 E8.48022
G1 X85.280 Y70.628 E8.52254
G1 X85.659 Y71.657 E8.56485
G1 X85.976 Y72.924 E8.61525
G1 X86.127 Y74.009 E8.65756
G1 X86.171 Y75.105 E8.69987
G1 X86.106 Y76.199 E8.74218
G1 X85.976 Y77.077 E8.77642
G1 X85.720 Y78.142 E8.81871
G1 X85.360 Y79.178 E8.86103
G1 X84.802 Y80.358 E8.91144
G1 X84.230 Y81.293 E8.95375
G1 X83.568 Y82.167 E8.99606
G1 X82.973 Y82.825 E9.03029
G1 X82.167 Y83.568 E9.07261
G1 X81.293 Y84.230 E9.11492
G1 X80.358 Y84.802 E9.15723
G1 X79.178 Y85.360 E9.20763
G1 X78.142 Y85.720 E9.24994
G1 X77.077 Y85.976 E9.29225
G1 X76.199 Y86.106 E9.32648
G1 X75.105 Y86.171 E9.36880
G1 X73.801 Y86.106 E9.41919
G1 X72.718 Y85.936 E9.46148
G1 X71.657 Y85.659 E9.50380
G1 X70.822 Y85.360 E9.53804
G1 X69.827 Y84.901 E9.58035
G1 X68.881 Y84.346 E9.62267
G1 X67.994 Y83.701 E9.66498
G1 X67.027 Y82.825 E9.71537
G1 X66.299 Y82.005 E9.75769
G1 X65.654 Y81.119 E9.80000
G1 X65.099 Y80.173 E9.84231
G1 X64.640 Y79.178 E9.88462
G1 X64.341 Y78.343 E9.91886
G1 X64.065 Y77.282 E9.96116
G1 X63.873 Y75.991 E10.01156
G1 X63.829 Y74.895 E10.05388
G1 X63.894 Y73.801 E10.09619
G1 X64.065 Y72.718 E10.13850
G1 X64.280 Y71.857 E10.17276
G1 X64.640 Y70.822 E10.21504
G1 X65.099 Y69.827 E10.25735
G1 X65.770 Y68.707 E10.30776
G1 X66.432 Y67.832 E10.35006
G1 X67.048 Y67.154 E10.38545
G1 X67.364 Y67.364 F7800.000
G1 X68.075 Y66.713 E10.42266 F1200.000
G1 X68.921 Y66.074 E10.46355
G1 X69.825 Y65.521 E10.50447
G1 X70.779 Y65.059 E10.54538
G1 X71.774 Y64.694 E10.58628
G1 X72.799 Y64.427 E10.62719
G1 X73.846 Y64.262 E10.66809
G1 X74.904 Y64.201 E10.70900
G1 X75.963 Y64.243 E10.74991 F1200.000
G1 X77.013 Y64.390 E10.79081
G1 X78.227 Y64.694 E10.83910
G1 X79.221 Y65.059 E10.87999
G1 X80.006 Y65.431 E10.91353
G1 X80.920 Y65.968 E10.95443
G1 X81.777 Y66.591 E10.99534
G1 X82.704 Y67.432 E11.04363
G1 X83.409 Y68.223 E11.08453
G1 X84.032 Y69.080 E11.12544
G1 X84.569 Y69.994 E11.16634
G1 X85.014 Y70.956 E11.20725
G1 X85.362 Y71.957 E11.24815
G1 X85.573 Y72.799 E11.28168
G1 X85.738 Y73.846 E11.32258
G1 X85.799 Y74.904 E11.36348
G1 X85.738 Y76.154 E11.41177
G1 X85.573 Y77.201 E11.45269
G1 X85.306 Y78.226 E11.49358
G1 X84.941 Y79.221 E11.53449
G1 X84.569 Y80.006 E11.56802
G1 X83.926 Y81.079 E11.61631
G1 X83.287 Y81.925 E11.65721
G1 X82.568 Y82.704 E11.69812
G1 X81.925 Y83.287 E11.73164
G1 X81.079 Y83.926 E11.77255
G1 X80.175 Y84.479 E11.81346
G1 X79.221 Y84.941 E11.85436
G1 X78.043 Y85.362 E11.90265
G1 X77.013 Y85.610 E11.94355
G1 X75.963 Y85.757 E11.98446
G1 X75.096 Y85.799 E12.01799
G1 X74.037 Y85.757 E12.05889
G1 X72.987 Y85.610 E12.09979
G1 X71.957 Y85.362 E12.14070
G1 X70.956 Y85.014 E12.18161
G1 X70.686 Y84.897 E12.19296
G1 X69.825 Y84.479 E12.22990
G1 X68.921 Y83.926 E12.27080
G1 X68.223 Y83.409 E12.30433
G1 X67.432 Y82.704 E12.34524
G1 X66.713 Y81.925 E12.38615
G1 X66.074 Y81.079 E12.42705
G1 X65.521 Y80.175 E12.46796
G1 X65.060 Y79.221 E12.50886
G1 X64.638 Y78.043 E12.55715
G1 X64.390 Y77.013 E12.59805
G1 X64.243 Y75.963 E12.63896
G1 X64.201 Y75.096 E12.67248
G1 X64.243 Y74.037 E12.71339
G1 X64.427 Y72.799 E12.76167
G1 X64.694 Y71.773 E12.80259
G1 X65.059 Y70.779 E12.84349
G1 X65.521 Y69.825 E12.88439
G1 X66.074 Y68.921 E12.92531
G1 X66.713 Y68.075 E12.96621
G1 X67.311 Y67.417 E13.00054
G1 X67.627 Y67.626 F7800.000
G1 X68.452 Y66.884 E13.04337 F1200.000
G1 X69.278 Y66.282 E13.08284
G1 X70.161 Y65.763 E13.12236
G1 X71.090 Y65.333 E13.16187
G1 X72.056 Y64.996 E13.20137
G1 X73.051 Y64.756 E13.24087
G1 X74.064 Y64.614 E13.28035
G1 X75.087 Y64.572 E13.31988
G1 X75.936 Y64.614 E13.35269 F1200.000
G1 X76.949 Y64.756 E13.39218
G1 X77.944 Y64.996 E13.43168
G1 X78.910 Y65.333 E13.47118
G1 X79.992 Y65.844 E13.51736
G1 X80.865 Y66.378 E13.55685
G1 X81.682 Y66.994 E13.59636
G1 X82.435 Y67.688 E13.63586
G1 X83.006 Y68.318 E13.66868
G1 X83.622 Y69.135 E13.70817
G1 X84.156 Y70.008 E13.74767
G1 X84.601 Y70.929 E13.78717
G1 X84.954 Y71.890 E13.82667
G1 X85.244 Y73.051 E13.87285
G1 X85.386 Y74.064 E13.91235
G1 X85.428 Y75.087 E13.95184
G1 X85.369 Y76.108 E13.99134
G1 X85.244 Y76.950 E14.02417
G1 X85.004 Y77.944 E14.06365
G1 X84.667 Y78.910 E14.10316
G1 X84.156 Y79.992 E14.14934
G1 X83.622 Y80.865 E14.18884
G1 X83.006 Y81.682 E14.22834
G1 X82.435 Y82.312 E14.26116
G1 X81.682 Y83.006 E14.30066
G1 X80.865 Y83.622 E14.34016
G1 X79.992 Y84.156 E14.37966
G1 X78.910 Y84.667 E14.42584
G1 X77.944 Y85.004 E14.46534
G1 X76.950 Y85.244 E14.50483
G1 X76.108 Y85.369 E14.53766
G1 X75.087 Y85.428 E14.57716
G1 X73.892 Y85.369 E14.62334
G1 X72.881 Y85.211 E14.66281
G1 X71.890 Y84.954 E14.70232
G1 X71.089 Y84.667 E14.73515
G1 X70.161 Y84.237 E14.77465
G1 X69.279 Y83.719 E14.81415
G1 X68.452 Y83.116 E14.85365
G1 X67.565 Y82.312 E14.89982
G1 X66.884 Y81.548 E14.93932
G1 X66.281 Y80.721 E14.97882
G1 X65.763 Y79.839 E15.01832
G1 X65.333 Y78.911 E15.05782
G1 X65.046 Y78.110 E15.09065
G1 X64.789 Y77.120 E15.13013
G1 X64.614 Y75.936 E15.17632
G1 X64.572 Y74.913 E15.21582
G1 X64.631 Y73.892 E15.25532
G1 X64.789 Y72.881 E15.29481
G1 X64.996 Y72.055 E15.32766
G1 X65.333 Y71.090 E15.36713
G1 X65.763 Y70.161 E15.40663
G1 X66.378 Y69.134 E15.45282
G1 X66.994 Y68.318 E15.49231
G1 X67.574 Y67.679 E15.52559
G1 X67.889 Y67.889 F7800.000
G1 X68.560 Y67.275 E15.56068 F1200.000
G1 X69.348 Y66.682 E15.59877
G1 X70.191 Y66.168 E15.63686
G1 X71.080 Y65.739 E15.67496
G1 X72.007 Y65.399 E15.71305
G1 X72.962 Y65.152 E15.75115
G1 X73.937 Y65.000 E15.78923
G1 X74.923 Y64.944 E15.82733
G1 X75.909 Y64.984 E15.86542 F1200.000
G1 X76.886 Y65.122 E15.90352
G1 X77.994 Y65.399 E15.94759
G1 X78.920 Y65.739 E15.98567
G1 X79.672 Y66.094 E16.01779
G1 X80.523 Y66.595 E16.05588
G1 X81.320 Y67.177 E16.09398
G1 X82.166 Y67.944 E16.13804
G1 X82.823 Y68.680 E16.17614
G1 X83.405 Y69.477 E16.21423
G1 X83.906 Y70.328 E16.25232
G1 X84.321 Y71.223 E16.29041
G1 X84.646 Y72.155 E16.32850
G1 X84.848 Y72.962 E16.36062
G1 X85.000 Y73.937 E16.39871
G1 X85.056 Y74.922 E16.43680
G1 X85.000 Y76.063 E16.48087
G1 X84.848 Y77.038 E16.51897
G1 X84.601 Y77.993 E16.55705
G1 X84.261 Y78.920 E16.59515
G1 X83.906 Y79.672 E16.62727
G1 X83.319 Y80.652 E16.67134
G1 X82.725 Y81.440 E16.70943
G1 X82.056 Y82.166 E16.74752
G1 X81.440 Y82.725 E16.77964
G1 X80.651 Y83.319 E16.81773
G1 X79.809 Y83.832 E16.85582
G1 X78.920 Y84.261 E16.89391
G1 X77.993 Y84.601 E16.93201
G1 X77.038 Y84.848 E16.97010
G1 X75.909 Y85.016 E17.01417
G1 X75.077 Y85.056 E17.04629
G1 X74.091 Y85.016 E17.08438
G1 X73.114 Y84.878 E17.12246
G1 X72.155 Y84.646 E17.16056
G1 X71.223 Y84.321 E17.19865
G1 X71.004 Y84.225 E17.20790
G1 X70.191 Y83.832 E17.24273
G1 X69.349 Y83.319 E17.28081
G1 X68.680 Y82.823 E17.31294
G1 X67.944 Y82.166 E17.35103
G1 X67.275 Y81.440 E17.38912
G1 X66.681 Y80.651 E17.42722
G1 X66.167 Y79.809 E17.46531
G1 X65.739 Y78.920 E17.50339
G1 X65.354 Y77.845 E17.54746
G1 X65.122 Y76.886 E17.58555
G1 X64.984 Y75.909 E17.62365
G1 X64.944 Y75.077 E17.65577
G1 X64.984 Y74.091 E17.69386
G1 X65.152 Y72.962 E17.73792
G1 X65.399 Y72.006 E17.77602
G1 X65.739 Y71.080 E17.81411
G1 X66.168 Y70.191 E17.85220
G1 X66.682 Y69.348 E17.89030
G1 X67.275 Y68.560 E17.92839
G1 X67.836 Y67.942 E17.96061
G1 X68.152 Y68.151 F7800.000
G1 X68.909 Y67.470 E17.99992 F1200.000
G1 X69.676 Y66.909 E18.03659
G1 X70.495 Y66.426 E18.07329
G1 X71.357 Y66.026 E18.10998
G1 X72.254 Y65.712 E18.14667
G1 X73.178 Y65.488 E18.18336
G1 X74.118 Y65.355 E18.22002
G1 X75.069 Y65.315 E18.25673
G1 X75.881 Y65.355 E18.28814 F1200.000
G1 X76.822 Y65.488 E18.32482
G1 X77.746 Y65.712 E18.36151
G1 X78.643 Y66.026 E18.39819
G1 X79.626 Y66.491 E18.44015
G1 X80.438 Y66.985 E18.47683
G1 X81.091 Y67.470 E18.50825
G1 X81.897 Y68.200 E18.55020
G1 X82.530 Y68.909 E18.58689
G1 X83.091 Y69.676 E18.62357
G1 X83.574 Y70.495 E18.66026
G1 X83.974 Y71.357 E18.69695
G1 X84.288 Y72.254 E18.73363
G1 X84.486 Y73.044 E18.76505
G1 X84.632 Y73.983 E18.80173
G1 X84.685 Y74.931 E18.83841
G1 X84.632 Y76.017 E18.88037
G1 X84.486 Y76.957 E18.91706
G1 X84.248 Y77.877 E18.95374
G1 X83.922 Y78.769 E18.99043
G1 X83.574 Y79.505 E19.02184
G1 X83.015 Y80.438 E19.06380
G1 X82.443 Y81.197 E19.10049
G1 X81.800 Y81.897 E19.13718
G1 X81.197 Y82.443 E19.16859
G1 X80.438 Y83.015 E19.20527
G1 X79.626 Y83.509 E19.24196
G1 X78.769 Y83.922 E19.27865
G1 X77.746 Y84.288 E19.32061
G1 X76.822 Y84.512 E19.35728
G1 X75.881 Y84.645 E19.39397
G1 X75.068 Y84.685 E19.42539
G1 X74.119 Y84.645 E19.46207
G1 X73.178 Y84.512 E19.49875
G1 X72.254 Y84.288 E19.53544
G1 X71.357 Y83.974 E19.57213
G1 X71.162 Y83.889 E19.58032
G1 X70.374 Y83.509 E19.61409
G1 X69.562 Y83.015 E19.65077
G1 X68.909 Y82.530 E19.68219
G1 X68.200 Y81.897 E19.71887
G1 X67.557 Y81.197 E19.75557
G1 X66.985 Y80.438 E19.79225
G1 X66.491 Y79.626 E19.82893
G1 X66.078 Y78.770 E19.86562
G1 X65.712 Y77.746 E19.90758
G1 X65.488 Y76.822 E19.94426
G1 X65.355 Y75.881 E19.98095
G1 X65.315 Y74.932 E20.01763
G1 X65.355 Y74.119 E20.04905
G1 X65.514 Y73.044 E20.09100
G1 X65.752 Y72.123 E20.12769
G1 X66.078 Y71.231 E20.16437
G1 X66.491 Y70.374 E20.20106
G1 X66.909 Y69.676 E20.23249
G1 X67.470 Y68.909 E20.26916
G1 X68.099 Y68.205 E20.30560
G1 X68.414 Y68.414 F7800.000
G1 X69.046 Y67.838 E20.33858 F1200.000
G1 X69.776 Y67.289 E20.37386
G1 X70.557 Y66.814 E20.40914
G1 X71.381 Y66.418 E20.44442
G1 X72.240 Y66.104 E20.47970
G1 X73.125 Y65.877 E20.51498
G1 X74.028 Y65.737 E20.55025
G1 X74.941 Y65.686 E20.58554
G1 X75.854 Y65.725 E20.62082 F1200.000
G1 X76.759 Y65.854 E20.65610
G1 X77.760 Y66.105 E20.69595
G1 X78.619 Y66.418 E20.73121
G1 X79.338 Y66.758 E20.76193
G1 X80.125 Y67.223 E20.79721
G1 X80.863 Y67.763 E20.83249
G1 X81.628 Y68.456 E20.87234
G1 X82.237 Y69.137 E20.90761
G1 X82.777 Y69.875 E20.94289
G1 X83.242 Y70.662 E20.97817
G1 X83.627 Y71.490 E21.01345
G1 X83.930 Y72.353 E21.04873
G1 X84.123 Y73.125 E21.07944
G1 X84.263 Y74.028 E21.11471
G1 X84.314 Y74.941 E21.14999
G1 X84.263 Y75.972 E21.18984
G1 X84.123 Y76.875 E21.22512
G1 X83.896 Y77.760 E21.26040
G1 X83.582 Y78.619 E21.29568
G1 X83.242 Y79.338 E21.32639
G1 X82.711 Y80.224 E21.36624
G1 X82.162 Y80.954 E21.40152
G1 X81.544 Y81.628 E21.43680
G1 X80.954 Y82.162 E21.46751
G1 X80.224 Y82.711 E21.50279
G1 X79.443 Y83.186 E21.53806
G1 X78.619 Y83.582 E21.57334
G1 X77.647 Y83.930 E21.61319
G1 X76.759 Y84.146 E21.64847
G1 X75.854 Y84.275 E21.68375
G1 X75.059 Y84.314 E21.71446
G1 X74.146 Y84.275 E21.74974
G1 X73.241 Y84.146 E21.78501
G1 X72.353 Y83.930 E21.82029
G1 X71.321 Y83.554 E21.86269
G1 X70.557 Y83.186 E21.89541
G1 X69.776 Y82.711 E21.93069
G1 X69.137 Y82.237 E21.96140
G1 X68.456 Y81.628 E21.99668
G1 X67.838 Y80.954 E22.03196
G1 X67.289 Y80.224 E22.06724
G1 X66.814 Y79.443 E22.10252
G1 X66.418 Y78.619 E22.13779
